X:167
T:Just as I was in the Morning. Ru1.167
%%VWML:RutherfordVol1-2248-p64-0p64
Z:Transcription by Village Music Project, Steve Mansfield July 2015
F:http://www.village-music-project.org.uk/
F:http://www.vwml.org/record/RutherfordVol1/2248/p64
L:1/8
W:The 1st Cu. casts of[f] one Cu. .| cast up again :|
W:cross over and turn .|. the 2d Cu. does the
W:same :||: the 1st Man Leads his Partner off and
W:Leaves her in the 2d Mans Place .||. then turns
W:the 2d Wo. :| then Leads her thro the Mens
W:side and turn her .| then the 1st Cu. half
W:figures Round the 2d Cu. and turns :|
Q:3/8=90
K:D
|:f/e/ | d2D (F/G/A)F | EFE cBc | d2D (F/G/A)F | A3 d2 :|
|: f/e/ | dfa afd | cea ecA | ded fdg | f3 a3 |
afa geg | fdf ece | d2D F/G/AF | A3 d2 :|]
T:Beverly School Boys. Ru1.168
B:Rutherford's Country Dances Vol 1, 1756
Z:village music project, Steve Mansfield July 2015
M:2/4
L:1/8
W:The 1st Cu. cast off Leads thro the 3d Cu.
W:the 2d Cu. does the same .| the 1st Man set
W:to the 2d Wo. and turns her the 1st Wo. does
W:the same .| Gallop down and gallop up again foot it
W:and cast off and right hand and left :|
Q:3/8=90
K:F
|:F>GA>G | AF cA | dF fc | A2 F2 |
F>GA>G | AF fc | f/g/a gf | e2 c2 :|
|: f>ga>f | ecgc | acbg | a2 g2 |
f>g a/g/a/f/ | ecgc | ac g/a/b | a2 gf/e/ |
fBdB | gcec | a/g/f/e/ fB | A2 G2 |
F>GA>B | cAfB | A2 G2 | F4 :|]
